resources/haticons/SVG/card_travel.svg

<!-- Generated by IcoMoon.io -->
<svg version="1.1" xmlns="http://www.w3.org/2000/svg" width="24" height="24" viewBox="0 0 24 24">
<title>card_travel</title>
<path d="M20.016 14.016v-6h-3v1.969h-2.016v-1.969h-6v1.969h-2.016v-1.969h-3v6h16.031zM20.016 18.984v-1.969h-16.031v1.969h16.031zM9 3.984v2.016h6v-2.016h-6zM20.016 6q0.844 0 1.406 0.586t0.563 1.43v10.969q0 0.844-0.563 1.43t-1.406 0.586h-16.031q-0.844 0-1.406-0.586t-0.563-1.43v-10.969q0-0.844 0.563-1.43t1.406-0.586h3v-2.016q0-0.844 0.586-1.406t1.43-0.563h6q0.844 0 1.43 0.563t0.586 1.406v2.016h3z"></path>
</svg>

<svg xmlns="http://www.w3.org/2000/svg" width="24" height="24"><path d="M20.016 14.016v-6h-3v1.969H15V8.016H9v1.969H6.984V8.016h-3v6h16.031zm0 4.968v-1.969H3.985v1.969h16.031zM9 3.984V6h6V3.984H9zM20.016 6q.844 0 1.406.586t.563 1.43v10.969q0 .844-.563 1.43t-1.406.586H3.985q-.844 0-1.406-.586t-.563-1.43V8.016q0-.844.563-1.43T3.985 6h3V3.984q0-.844.586-1.406t1.43-.563h6q.844 0 1.43.563t.586 1.406V6h3z"/></svg>
